16x16/panel/yate-tray-incomingchat.svg

<svg xmlns="http://www.w3.org/2000/svg" width="16" height="16" version="1.1">
 <defs>
  <style id="current-color-scheme" type="text/css">
   .ColorScheme-Text { color:#323a41; } .ColorScheme-Highlight { color:#4285f4; } .ColorScheme-NeutralText { color:#ff9800; } .ColorScheme-PositiveText { color:#4caf50; } .ColorScheme-NegativeText { color:#f44336; }
  </style>
 </defs>
 <path style="fill:currentColor" class="ColorScheme-Text" d="M 7.6933594 1.0019531 C 5.8259224 1.0327331 4.351985 1.7208388 2.984375 3.078125 C 1.506196 4.545147 0.97465075 5.8921706 0.98046875 8.1484375 C 0.98391669 9.4847578 1.1693579 10.414847 1.5605469 11.183594 A 2.5 2.5 0 0 1 2.5 11 A 2.5 2.5 0 0 1 5 13.5 A 2.5 2.5 0 0 1 4.8496094 14.34375 C 5.3187162 14.519231 5.873965 14.698087 6.328125 14.796875 C 7.155279 14.976813 7.4705804 15.027431 8.4121094 14.988281 C 10.391776 14.905961 11.733042 14.349918 12.998047 13.089844 C 14.272996 11.819865 14.909581 10.292888 15.033203 8.2109375 C 15.254517 4.4836986 13.262554 1.8597651 9.703125 1.1894531 C 8.982395 1.0537251 8.3158384 0.99169304 7.6933594 1.0019531 z M 6.5351562 3 C 6.8008523 3 7.2765905 3.5671789 7.6328125 4.3066406 C 8.0210405 5.1125546 8.0170874 5.3566044 7.6152344 5.6210938 C 7.0840134 5.970732 6.6464844 6.4440725 6.6464844 6.6679688 C 6.6464844 6.7835767 6.9823101 7.2302663 7.3925781 7.6601562 C 8.0631911 8.3628439 8.1724536 8.5497121 8.4785156 9.5195312 C 8.6696436 10.125156 8.9103158 10.655226 9.0273438 10.728516 C 9.1922787 10.831808 9.3981918 10.771055 10.009766 10.433594 L 10.255859 10.296875 C 10.74059 10.029407 10.793981 9.9319075 11.126953 10.433594 C 11.316561 10.668172 11.611263 11.154173 11.78125 11.513672 C 12.149859 12.29322 12.085838 12.471732 11.332031 12.773438 C 9.6510275 13.44625 8.6971461 12.724017 6.7050781 9.2753906 C 5.0356761 6.3853563 4.7122131 5.2880676 5.2207031 4.2539062 C 5.4865161 3.7132955 6.2345442 3 6.5351562 3 z"/>
 <circle style="fill:currentColor" class="ColorScheme-Highlight" cx="2.5" cy="13.5" r="1.5"/>
</svg>

<svg xmlns="http://www.w3.org/2000/svg" width="16" height="16"><defs><style id="current-color-scheme" type="text/css"></style></defs><path style="fill:currentColor;color:#323a41" d="M7.693 1.002c-1.867.03-3.341.719-4.709 2.076C1.506 4.545.974 5.892.98 8.148c.004 1.337.19 2.267.58 3.036A2.5 2.5 0 0 1 2.5 11 2.5 2.5 0 0 1 5 13.5a2.5 2.5 0 0 1-.15.844c.469.175 1.024.354 1.478.453.827.18 1.143.23 2.084.191 1.98-.082 3.321-.638 4.586-1.898 1.275-1.27 1.912-2.797 2.035-4.88.222-3.726-1.77-6.35-5.33-7.02a9.978 9.978 0 0 0-2.01-.188zM6.535 3c.266 0 .742.567 1.098 1.307.388.806.384 1.05-.018 1.314-.531.35-.969.823-.969 1.047 0 .116.336.562.747.992.67.703.78.89 1.086 1.86.19.605.431 1.135.548 1.209.165.103.371.042.983-.295l.246-.137c.485-.268.538-.365.871.137.19.234.484.72.654 1.08.369.78.305.958-.449 1.26-1.681.672-2.635-.05-4.627-3.499-1.67-2.89-1.993-3.987-1.484-5.021C5.487 3.714 6.235 3 6.535 3z"/><circle style="fill:currentColor;color:#4285f4" cx="2.5" cy="13.5" r="1.5"/></svg>
